X:1405
T:The Maid That Dare Not Tell
M:C|
L:1/8
N:"collected by J. O'Neill"
B:O'Neill's 1405
Z:"Transcribed by Bob Safranek, rjs@gsp.org"
K:D
G|FAAF   GBBG|FAAF  GFED|FAAF   GFGA|BdAF  D2 D :|
g|fdeg fdef|gfed   B2 Ag|fdeg  fdeg|faef   d2 dg|
fdeg fdef|agfed B2 A2|FAFA GFGA|BdAF D2 D|]
